svg/u1f6af.svg

<svg viewBox="0 0 128 128" xmlns="http://www.w3.org/2000/svg">
  <g>
    <path d="M64,4C30.9,4,4,30.9,4,64s26.9,60,60,60s60-26.9,60-60S97.1,4,64,4z M114,64c0,12-4.2,23-11.3,31.6 L32.4,25.3C41,18.2,52,14,64,14C91.6,14,114,36.4,114,64z M14,64c0-12,4.2-23,11.3-31.6l70.3,70.3C87,109.8,76,114,64,114 C36.4,114,14,91.6,14,64z" fill="#CC3333"/>
    <circle cx="60.1" cy="63.1" r="56.1" fill="#F44336"/>
    <path d="M95.6,102.7C87,109.8,76,114,64,114c-27.6,0-50-22.4-50-50c0-12,4.2-23,11.3-31.6l7.1-7.1 C41,18.2,52,14,64,14c27.6,0,50,22.4,50,50c0,12-4.2,23-11.3,31.6" fill="#FFFFFF"/>
    <path d="M95.6,102.7C87,109.8,76,114,64,114c-27.6,0-50-22.4-50-50c0-12,4.2-23,11.3-31.6l7.1-7.1 C41,18.2,52,14,64,14c27.6,0,50,22.4,50,50c0,12-4.2,23-11.3,31.6" fill="#231F20"/>
    <path d="M96.4,103.2C88.1,110,77.6,114,66.1,114c-26.4,0-47.9-21.5-47.9-47.9c0-11.5,4-22,10.8-30.3 l6.8-6.8c8.2-6.8,18.8-10.8,30.3-10.8c26.4,0,47.9,21.5,47.9,47.9c0,11.5-4,22-10.8,30.3" fill="#414042"/>
    <g>
      <path d="M41,70.9l-2.5-2.5c-0.4-0.4-0.4-1.1,0-1.5l2.5-2.5c0.4-0.4,1.1-0.4,1.5,0l2.5,2.5 c0.4,0.4,0.4,1.1,0,1.5l-2.5,2.5C42.1,71.3,41.4,71.3,41,70.9z" fill="#FAFAFA"/>
      <path d="M48.6,79.8L46,82.3c-0.4,0.4-1.1,0.4-1.5,0L42,79.8c-0.4-0.4-0.4-1.1,0-1.5l2.5-2.5 c0.4-0.4,1.1-0.4,1.5,0l2.5,2.5C49,78.7,49,79.4,48.6,79.8z" fill="#FAFAFA"/>
      <path d="M42.9,91.2l-2.5,2.5c-0.4,0.4-1.1,0.4-1.5,0l-2.5-2.5c-0.4-0.4-0.4-1.1,0-1.5l2.5-2.5 c0.4-0.4,1.1-0.4,1.5,0l2.5,2.5C43.3,90.1,43.3,90.8,42.9,91.2z" fill="#FAFAFA"/>
      <circle cx="71.6" cy="34.1" r="8.1" fill="#FAFAFA"/>
      <path d="M92.5,70.9l-7.7-21.8c-1.8-3.7-5.8-5.3-11.6-5.3c-4.6,0-8.6,1.5-10.6,3.7l-8.3,7.7 c-0.5,0.5-1.3,0.8-2,0.8H42.1c-1.5,0-2.9,1.1-3,2.6C38.9,60.5,40.3,62,42,62h13.2c0.8,0,1.5-0.3,2.1-0.9l5-5.1 c0.2-0.2,0.6-0.1,0.6,0.3v16v27.9c0,1.9,1.4,3.6,3.3,3.8c2.2,0.2,4-1.5,4-3.7V73.7c0-0.8,0.7-1.5,1.5-1.5s1.5,0.7,1.5,1.5v26.5 c0,1.9,1.4,3.6,3.3,3.8c2.2,0.2,4-1.5,4-3.7V56.1c0-0.4,0.6-0.5,0.7-0.1l5.9,17c0.6,1.6,2.3,2.4,3.9,1.7 C92.4,74.2,93,72.4,92.5,70.9L92.5,70.9z" fill="#FAFAFA"/>
    </g>
    <polyline points="23.4,35.6 95,102.1 97,100.2 30.6,33.4 " opacity="0.8" fill="#231F20" enable-background="new "/>
    <path d="M103.9,96.8L25.3,18.9L18.2,26l78.6,77.9" fill="#F44336"/>
  </g>
  <path d="M45,10.9c1.7-0.4,4.2-1.6,5.9-1.1c1,0.3,1.9,1.5,1.5,2.5c-0.3,0.8-1.1,1.3-2,1.5 c-4.1,1.1-7.7,2.3-11.3,4.1C32,21.6,25.6,27.2,21,33.7c-1.9,2.7-3.4,5.5-5.8,7.8c-0.2,0.2-0.5,0.4-0.8,0.4c-0.2,0-0.4,0-0.5-0.1 c-1.2-0.5-1.4-1.1-1.2-2.3c0.2-1,0.5-2,1-2.9c0.9-1.8,2.2-3.4,3.3-5.1c1.9-2.9,4.1-5.6,6.6-8C30.4,17.2,39.2,12.4,45,10.9z" fill="#FF8A80"/>
  <polygon points="32.4,25.3 30.4,27.3 101.5,98.4 103.3,96.2 " fill="#CC3333"/>
</svg>

<svg viewBox="0 0 128 128" xmlns="http://www.w3.org/2000/svg">
  <defs/>
  <path d="M64,4 C30.9,4 4,30.9 4,64 C4,97.1 30.9,124 64,124 C97.1,124 124,97.1 124,64 C124,30.9 97.1,4 64,4 Z M114,64 C114,76 109.8,87 102.7,95.6 L32.4,25.3 C41,18.2 52,14 64,14 C91.6,14 114,36.4 114,64 Z M14,64 C14,52 18.2,41 25.3,32.4 L95.6,102.7 C87,109.8 76,114 64,114 C36.4,114 14,91.6 14,64 Z" fill="#CC3333"/>
  <path d="M116.2,63.1 A56.1 56.1 0 1 1 4,63.1 A56.1 56.1 0 1 1 116.2,63.1 Z" fill="#F44336"/>
  <path d="M95.6,102.7 C87,109.8 76,114 64,114 C36.4,114 14,91.6 14,64 C14,52 18.2,41 25.3,32.4 L32.4,25.3 C41,18.2 52,14 64,14 C91.6,14 114,36.4 114,64 C114,76 109.8,87 102.7,95.6" fill="#FFFFFF"/>
  <path d="M95.6,102.7 C87,109.8 76,114 64,114 C36.4,114 14,91.6 14,64 C14,52 18.2,41 25.3,32.4 L32.4,25.3 C41,18.2 52,14 64,14 C91.6,14 114,36.4 114,64 C114,76 109.8,87 102.7,95.6" fill="#231F20"/>
  <path d="M96.4,103.2 C88.1,110 77.6,114 66.1,114 C39.7,114 18.2,92.5 18.2,66.1 C18.2,54.6 22.2,44.1 29,35.8 L35.8,29 C44,22.2 54.6,18.2 66.1,18.2 C92.5,18.2 114,39.7 114,66.1 C114,77.6 110,88.1 103.2,96.4" fill="#414042"/>
  <path d="M41,70.9 L38.5,68.4 C38.1,68 38.1,67.3 38.5,66.9 L41,64.4 C41.4,64 42.1,64 42.5,64.4 L45,66.9 C45.4,67.3 45.4,68 45,68.4 L42.5,70.9 C42.1,71.3 41.4,71.3 41,70.9 Z" fill="#FAFAFA"/>
  <path d="M48.6,79.8 L46,82.3 C45.6,82.7 44.9,82.7 44.5,82.3 L42,79.8 C41.6,79.4 41.6,78.7 42,78.3 L44.5,75.8 C44.9,75.4 45.6,75.4 46,75.8 L48.5,78.3 C49,78.7 49,79.4 48.6,79.8 Z" fill="#FAFAFA"/>
  <path d="M42.9,91.2 L40.4,93.7 C40,94.1 39.3,94.1 38.9,93.7 L36.4,91.2 C36,90.8 36,90.1 36.4,89.7 L38.9,87.2 C39.3,86.8 40,86.8 40.4,87.2 L42.9,89.7 C43.3,90.1 43.3,90.8 42.9,91.2 Z" fill="#FAFAFA"/>
  <path d="M79.7,34.1 A8.1 8.1 0 1 1 63.5,34.1 A8.1 8.1 0 1 1 79.7,34.1 Z" fill="#FAFAFA"/>
  <path d="M92.5,70.9 L84.8,49.1 C83,45.4 79,43.8 73.2,43.8 C68.6,43.8 64.6,45.3 62.6,47.5 L54.3,55.2 C53.8,55.7 53,56 52.3,56 L42.1,56 C40.6,56 39.2,57.1 39.1,58.6 C38.9,60.5 40.3,62 42,62 L55.2,62 C56,62 56.7,61.7 57.3,61.1 L62.3,56 C62.5,55.8 62.9,55.9 62.9,56.3 L62.9,72.3 L62.9,100.2 C62.9,102.1 64.3,103.8 66.2,104 C68.4,104.2 70.2,102.5 70.2,100.3 L70.2,73.7 C70.2,72.9 70.9,72.2 71.7,72.2 C72.5,72.2 73.2,72.9 73.2,73.7 L73.2,100.2 C73.2,102.1 74.6,103.8 76.5,104 C78.7,104.2 80.5,102.5 80.5,100.3 L80.5,56.1 C80.5,55.7 81.1,55.6 81.2,56 L87.1,73 C87.7,74.6 89.4,75.4 91,74.7 C92.4,74.2 93,72.4 92.5,70.9 L92.5,70.9 Z" fill="#FAFAFA"/>
  <path d="M23.4,35.6 L95,102.1 L97,100.2 L30.6,33.4" fill="#231F20" opacity="0.8"/>
  <path d="M103.9,96.8 L25.3,18.9 L18.2,26 L96.8,103.9" fill="#F44336"/>
  <path d="M45,10.9 C46.7,10.5 49.2,9.3 50.9,9.8 C51.9,10.1 52.8,11.3 52.4,12.3 C52.1,13.1 51.3,13.6 50.4,13.8 C46.3,14.9 42.7,16.1 39.1,17.9 C32,21.6 25.6,27.2 21,33.7 C19.1,36.4 17.6,39.2 15.2,41.5 C15,41.7 14.7,41.9 14.4,41.9 C14.2,41.9 14,41.9 13.9,41.8 C12.7,41.3 12.5,40.7 12.7,39.5 C12.9,38.5 13.2,37.5 13.7,36.6 C14.6,34.8 15.9,33.2 17,31.5 C18.9,28.6 21.1,25.9 23.6,23.5 C30.4,17.2 39.2,12.4 45,10.9 Z" fill="#FF8A80"/>
  <path d="M32.4,25.3 L30.4,27.3 L101.5,98.4 L103.3,96.2 Z" fill="#CC3333"/>
</svg>
